X:1
T:Title
%%score { ( 1 3 ) | 2 }
L:1/8
Q:1/4=100
M:4/4
K:Db
V:1 treble nm="Grand Piano"
V:3 treble 
V:2 bass 
V:1
 z4 z2 [DF]>[EG] | [FA]>[FA] [FA]>[GB] [FA]>[DF] [DF]>[FA] | [Fd]>[Fe] [Gd][GB] [FA]2 [DF]>[EG] | %3
 [FA]>[Fd] [Gd]>[DGB] [DFA]<[A,DF] [=G,DF][G,D] | [A,CE]6 [A,DF]>[A,EG] | %5
 [FA]>[FA] [FA]>[GB] [FA]>[DF] [DF]>[FA] | [Fd]>[Fe] [Gd][GB] [FA]2 D>E | %7
 F>[FA] [FA]>[GB] [FA]>[DF] [CE]>[CF] | D6 A>F | z2 F>F F2 d>e | d6 z2 | %11
 [FA]>[FA] [FA]>[GB] [FA]>[A,DF] [=G,DF]>[G,D] | [A,CE]6 [A,DF]>[A,EG] | %13
 [FA]>[FA] [FA]>[GB] [FA]2 [FA]>[FA] | Bd d>B [FA]2 D>E | %15
 F[FA][Fd][GB] [FA]<[A,DF][K:bass] [G,CE]>[A,CF] | [F,D]6 z2 |] %17
V:2
 z4 z2 [D,A,]>[D,A,] | [D,D]>[D,D] [D,D]>[D,D] [D,D]>[D,A,] [D,A,]>[D,D] | %2
 [D,A,]>[D,A,] [G,B,][G,D] [D,D]2 [D,A,]>[D,A,] | [D,D]>[D,A,] [G,B,]>G, D,<D, B,,B,, | %4
 A,,6 D,>D, | [D,D]>[D,D] [D,D]>[D,D] [D,D]>[D,A,] [D,A,]>[D,D] | %6
 [D,A,]>[D,A,] [G,B,][G,D] [D,D]2 [D,F,]>[D,G,D] | %7
 [D,A,D]>[D,D] [D,D]>[D,D] [D,D]>[D,A,] [A,,G,]>[A,,A,] | [D,F,]6 z2 | z2 [D,D]>[D,D] [D,D]2 z2 | %10
 z2 [G,B,]>[G,B,] [G,B,]2 [G,DG]>[D,D] | [D,D]>[D,D] [D,D]>[D,D] [D,D]>D, B,,>B,, | A,,6 D,>D, | %13
 [D,D]>[D,D] [D,D]>[D,D] [D,D]2 [D,D]>[D,D] | [G,DG][G,B,G] [G,B,G]>[G,DG] [D,D]2 [D,F,]>[D,G,D] | %15
 [D,A,D][D,D][D,A,][D,D] [D,D]<D, A,,>A,, | D,6 z2 |] %17
V:3
 x8 | x8 | x8 | x8 | x8 | x8 | x8 | x8 | x8 | A6 z2 | z2 G>G G2 B>[FA] | x8 | x8 | x8 | x8 | %15
 x6[K:bass] x2 | x8 |] %17

